X:40
L:1/8
Q:1/8=220
M:3/8
K:D
 d | a2 g | fed | A2 c | def | e2 a | fed | A2 c | d2 :| e | e2 e | agf | e2 e | agf | e2 e | edc | 
 dcB | A2 A | g2 g | fed | g2 g | fed | g2 g | fed | edc d2 :|

